src/static/logos/armory.svg

<?xml version="1.0" encoding="UTF-8"?>
<svg width="256px" height="308px" viewBox="0 0 256 308" version="1.1" xmlns="http://www.w3.org/2000/svg" xmlns:xlink="http://www.w3.org/1999/xlink" preserveAspectRatio="xMidYMid">
	<g>
		<path d="M172.965,115.5429 C166.359,99.6039 149.308,92.5909 121.842,94.4779 C99.322,72.3149 74.425,61.7599 40.663,94.4779 C28.21,93.2389 16.525,92.7749 10.287,97.8169 L16.772,140.7189 L94.355,160.7569 L172.965,115.5429 Z" fill="#5BC5DF"></path>
		<path d="M248.4923,132.7553 C241.0853,123.9433 226.6923,121.7273 209.7003,121.9653 C186.0663,91.9083 146.7233,97.8773 127.7513,123.2503 C102.6473,116.1883 84.5353,119.1563 75.0873,134.5533 L118.2453,157.9303 L171.4233,174.8853 L232.0373,182.9633 L248.4923,132.7553 Z" fill="#3189AA"></path>
		<path d="M22.7209,77.4453 L67.4659,58.0673 L67.4659,35.4603 L127.7679,21.1163 L189.0639,35.4873 L189.0639,57.9843 L234.2429,78.1583 C235.5589,89.1803 237.4679,116.8303 229.4369,150.1843 C228.2879,154.9533 226.9809,159.6553 225.5169,164.2853 C207.6729,155.8433 190.4649,158.1303 173.7359,168.4643 C157.2889,156.1743 139.6289,149.5153 119.7869,152.9643 C93.5969,121.2473 60.8909,112.0093 21.6749,125.2293 C19.3029,102.8803 21.3759,85.4333 22.7209,77.4453 M253.6829,69.1333 L252.6699,63.8783 L209.6159,44.6533 L209.6159,19.1963 L127.7339,0.0003 L46.9139,19.2233 L46.9139,44.5703 L4.9699,62.7363 L3.7279,67.6333 C3.3549,69.1053 -5.2951,104.2353 5.1019,151.0803 C11.1929,178.5203 22.5829,204.3673 38.9599,227.9013 C59.2899,257.1183 87.3629,282.7683 122.3999,304.1423 L127.5739,307.2993 L132.8389,304.2993 C166.8529,284.9143 194.3999,260.5203 214.7159,231.7953 C231.0259,208.7343 242.6999,182.8953 249.4179,154.9963 C260.8499,107.5153 253.9819,70.6783 253.6829,69.1333" fill="#136A8F"></path>
		<path d="M128.0002,0 L127.5732,307.299 C287.5402,219.329 252.6702,63.878 252.6702,63.878 L209.6152,44.654 L209.6152,19.196 L128.0002,0 Z" fill-opacity="0.15" fill="#000000"></path>
	</g>
</svg>

<svg width="256" height="308" xmlns="http://www.w3.org/2000/svg" preserveAspectRatio="xMidYMid"><path d="M172.965 115.543c-6.606-15.94-23.657-22.952-51.123-21.065-22.52-22.163-47.417-32.718-81.179 0-12.453-1.24-24.138-1.703-30.376 3.339l6.485 42.902 77.583 20.038 78.61-45.214z" fill="#5BC5DF"/><path d="M248.492 132.755c-7.407-8.812-21.8-11.028-38.792-10.79-23.634-30.057-62.977-24.088-81.949 1.285-25.104-7.062-43.216-4.094-52.664 11.303l43.158 23.377 53.178 16.955 60.614 8.078 16.455-50.208z" fill="#3189AA"/><path d="M22.72 77.445l44.746-19.378V35.46l60.302-14.344 61.296 14.371v22.497l45.179 20.174c1.316 11.022 3.225 38.672-4.806 72.026a209.623 209.623 0 01-3.92 14.101c-17.844-8.442-35.052-6.155-51.781 4.18-16.447-12.29-34.107-18.95-53.95-15.5-26.19-31.718-58.895-40.956-98.111-27.736-2.372-22.349-.3-39.796 1.046-47.784m230.962-8.312l-1.013-5.255-43.054-19.225V19.196L127.734 0l-80.82 19.223V44.57L4.97 62.736l-1.242 4.897c-.373 1.472-9.023 36.602 1.374 83.447 6.09 27.44 17.48 53.287 33.858 76.821 20.33 29.217 48.403 54.867 83.44 76.241l5.174 3.157 5.265-3c34.014-19.385 61.56-43.779 81.877-72.504 16.31-23.06 27.984-48.9 34.702-76.799 11.432-47.48 4.564-84.318 4.265-85.863" fill="#136A8F"/><path d="M128 0l-.427 307.299C287.54 219.329 252.67 63.878 252.67 63.878l-43.055-19.224V19.196L128 0z" fill-opacity=".15"/></svg>
